X:1
T:Gaudeamus igitur
T:Gaudeamus Igitur
T:Arr. Dr. Martin Orlob, 2015
C:Arr. Dr. Martin Orlob
%%score [ ( 1 2 ) 3 ( 4 5 ) 6 ]
L:1/8
M:3/4
K:Bb
V:1 treble transpose=-2 nm="B♭ Trumpet I+II"
V:2 treble transpose=-2 
V:3 treble transpose=-7 nm="Horn in F"
V:4 bass nm="Trombone+Bariton"
V:5 bass 
V:6 bass nm="Tuba"
V:1
[K:Bb]!ff!"^Maestoso""^Intro" g2 z g/g/ gg | [fg]2 z [fg]/[fg]/ [fg][fg] | %2
 [fg]2 z [fg]/[fg]/ [fg][fg] |"^ritardando grandis" [fg]2 [fg]2 [fg]2 | !fermata![fg]6 |: %5
!f!"^Lied""^a tempo di marcia" c>G G2 c2 | A>A A4 | =B>c d2 B2 |1 (c=e) c4 :|2 (c=e) c4 || %10
 =B>c !tenuto!d2 !tenuto!d2 | =ec d2 d2 | =B>c !tenuto!d2 !tenuto!d2 | =ec d2 d2 | %14
 c>=B (Af) (=ed) | =e2 d2 c2 | c>=B (Af) (=ed) |"^rit." g2 =B2 !fermata!c2 |] %18
V:2
[K:Bb] G2 z G/G/ GG | [FG]2 z [FG]/[FG]/ [FG][FG] | [FG]2 z [FG]/[FG]/ [FG][FG] | %3
 !tenuto![FG]2 !tenuto![FG]2 !tenuto![FG]2 | !fermata![FG]6 |: G>=E E2 G2 | F>F F4 | G>G G2 G2 |1 %8
 (GG) G4 :|2 (GG) G4 || G>G G2 G2 | G2 G2 G2 | G>G G2 G2 | G2 G2 G2 | G>G FA ^cA | c2 =B2 A2 | %16
 G>G FA GF | c2 F2 G2 |] %18
V:3
[K:Bb] c2 z c/c/ cc | G2 z G/G/ GG | G2 z G/G/ GG | !tenuto!G2 !tenuto!G2 !tenuto!G2 | %4
 !fermata!G6 |:!f! A>F F2 F2 | F>F F4 | G>G G2 G2 |1 Ac A4 :|2 Ac A4 || C>F G2 G2 | AF =E2 E2 | %12
 C>F G2 G2 | AF =E2 E2 | A>A FB cF | c2 B2 A2 | A>A FB AG | A2 G2 !fermata!F2 |] %18
V:4
!ff! F=E _ED CB, | A,G, F,E, D,C, | B,,A,, G,,F,, G,,A,, | %3
 B,,C, !tenuto!D,!tenuto!E, !tenuto!F,!tenuto!G, | !fermata!A,6 |:!f! B,>[F,B,] [B,,B,]2 [D,B,]2 | %6
 [E,E]>[E,E] [E,E][D,D] [C,C][B,,B,] | [F,C]>[F,D] [F,E]2 [F,C]2 |1 %8
 [B,,B,]2 [B,,B,][F,,F,] [G,,G,][A,,A,] :|2 [B,,B,]2 [B,,B,]B,, C,D, || F,>[F,G,] [F,A,]2 [F,A,]2 | %11
 [B,,B,]2 [F,A,]2 [F,A,]2 | F,>[F,G,] [F,A,]2 [F,A,]2 | [B,,B,]2 [F,A,]2 [F,A,]2 | %14
 [D,B,]>[D,B,] [E,B,][C,C] [D,D][E,E] | F2 ^F2 G2 | [D,B,]>[D,B,] [E,B,][C,C] [D,=B,][E,C] | %17
 [F,D]2 [F,C]2 !fermata![B,,D]2 |] %18
V:5
 x6 | x6 | x6 | x6 | x6 |: x6 | x6 | x6 |1 x6 :|2 x6 || x6 | x6 | x6 | x6 | x6 | F,=E, F,^F, G,D, | %16
 x6 | x6 |] %18
V:6
!ff! F,=E, _E,D, C,B,, | A,,G,, F,,E,, D,,C,, | B,,,A,,, G,,,F,,, G,,,A,,, | %3
 B,,,C,, !tenuto!D,,!tenuto!E,, !tenuto!F,,!tenuto!G,, | !fermata!A,,6 |:!f! B,,,>B,,, B,,,2 D,,2 | %6
 E,,>E,, E,,4 | F,,>F,, F,,2 F,,2 |1 B,,,2 [B,,,B,,][F,,,F,,] [G,,,G,,][A,,,A,,] :|2 %9
 B,,,2 B,,,B,,, C,,D,, || F,,>F,, F,,2 F,,2 | B,,,D,, F,,2 F,,2 | F,,>F,, F,,2 F,,2 | %13
 B,,,D,, F,,2 F,,2 | D,,>D,, E,,C,, D,,E,, | F,,2 ^F,,2 G,,2 | D,,>D,, E,,C,, D,,E,, | %17
 F,,2 F,,2 !fermata!B,,,2 |] %18

